assets/img/feature_5.svg

<svg width="78" height="88" viewBox="0 0 78 88" fill="none" xmlns="http://www.w3.org/2000/svg">
<path fill-rule="evenodd" clip-rule="evenodd" d="M41.4573 48.0414C40.5887 48.3671 39.6206 47.9269 39.295 47.0582L24.8932 8.63911C24.5676 7.77049 25.0078 6.80238 25.8764 6.47677C26.7451 6.15116 27.7132 6.59136 28.0388 7.45998L42.4405 45.8791C42.7661 46.7477 42.3259 47.7158 41.4573 48.0414Z" fill="#EAEADE"/>
<path fill-rule="evenodd" clip-rule="evenodd" d="M28.4365 45.8879C27.8054 45.3755 27.7092 44.4485 28.2216 43.8174L54.3459 11.6426C54.8583 11.0115 55.7853 10.9153 56.4164 11.4277C57.0475 11.9401 57.1437 12.8671 56.6313 13.4982L30.507 45.673C29.9945 46.3041 29.0676 46.4003 28.4365 45.8879Z" fill="#EAEADE"/>
<circle cx="25.7917" cy="7.06661" r="5.45855" transform="rotate(9.0748 25.7917 7.06661)" fill="#D9D9D9"/>
<circle cx="55.0469" cy="11.7399" r="5.45855" transform="rotate(9.0748 55.0469 11.7399)" fill="#D9D9D9"/>
<path d="M0.324707 52.9349C0.324707 45.4511 0.324707 41.7092 1.69144 38.8508C2.89366 36.3365 4.81198 34.2922 7.17146 33.0111C9.85384 31.5547 13.3653 31.5547 20.3881 31.5547H57.1083C64.1312 31.5547 67.6426 31.5547 70.325 33.0111C72.6845 34.2922 74.6028 36.3365 75.805 38.8508C77.1717 41.7092 77.1717 45.4511 77.1717 52.9349V65.7408C77.1717 73.2246 77.1717 76.9664 75.805 79.8249C74.6028 82.3392 72.6845 84.3834 70.325 85.6646C67.6426 87.121 64.1312 87.121 57.1083 87.121H20.3881C13.3653 87.121 9.85384 87.121 7.17146 85.6646C4.81198 84.3834 2.89366 82.3392 1.69144 79.8249C0.324707 76.9664 0.324707 73.2246 0.324707 65.7408V52.9349Z" fill="#EF6CF6"/>
<path d="M43.5194 53.1539C46.6269 55.7134 48.1806 56.9931 48.6147 58.5745C48.8582 59.4615 48.8582 60.3959 48.6147 61.2829C48.1806 62.8643 46.6269 64.144 43.5193 66.7035C38.3219 70.9843 35.7231 73.1248 33.511 72.9202C32.2932 72.8076 31.1523 72.2861 30.2812 71.4438C28.6989 69.9138 28.6989 66.5854 28.6989 59.9287C28.6989 53.272 28.6989 49.9436 30.2812 48.4137C31.1523 47.5714 32.2932 47.0498 33.511 46.9372C35.7231 46.7327 38.3219 48.8731 43.5194 53.1539Z" fill="#FFFDEF"/>
</svg>

<svg xmlns="http://www.w3.org/2000/svg" width="78" height="88" fill="none" viewBox="0 0 78 88"><path fill="#EAEADE" fill-rule="evenodd" d="M41.457 48.041a1.68 1.68 0 0 1-2.162-.983L24.893 8.64A1.68 1.68 0 0 1 28.04 7.46L42.44 45.88a1.68 1.68 0 0 1-.983 2.161Z" clip-rule="evenodd"/><path fill="#EAEADE" fill-rule="evenodd" d="M28.436 45.888a1.472 1.472 0 0 1-.214-2.07l26.124-32.175a1.472 1.472 0 0 1 2.285 1.855L30.507 45.673a1.472 1.472 0 0 1-2.07.215Z" clip-rule="evenodd"/><circle cx="25.792" cy="7.067" r="5.459" fill="#D9D9D9" transform="rotate(9.075 25.792 7.067)"/><circle cx="55.047" cy="11.74" r="5.459" fill="#D9D9D9" transform="rotate(9.075 55.047 11.74)"/><path fill="#EF6CF6" d="M.325 52.935c0-7.484 0-11.226 1.366-14.084 1.203-2.514 3.121-4.559 5.48-5.84 2.683-1.456 6.194-1.456 13.217-1.456h36.72c7.023 0 10.535 0 13.217 1.456 2.36 1.281 4.278 3.325 5.48 5.84 1.367 2.858 1.367 6.6 1.367 14.084V65.74c0 7.484 0 11.225-1.367 14.084-1.202 2.514-3.12 4.558-5.48 5.84-2.682 1.456-6.194 1.456-13.217 1.456h-36.72c-7.023 0-10.534 0-13.217-1.456-2.359-1.282-4.277-3.326-5.48-5.84C.325 76.966.325 73.225.325 65.74V52.935Z"/><path fill="#FFFDEF" d="M43.52 53.154c3.107 2.56 4.66 3.84 5.095 5.42a5.112 5.112 0 0 1 0 2.709c-.434 1.581-1.988 2.861-5.096 5.42-5.197 4.281-7.796 6.422-10.008 6.217a5.356 5.356 0 0 1-3.23-1.476C28.7 69.914 28.7 66.585 28.7 59.929c0-6.657 0-9.985 1.582-11.515a5.356 5.356 0 0 1 3.23-1.477c2.212-.204 4.81 1.936 10.008 6.217Z"/></svg>
